X: 9
T:New Concert Hornpipe. WM.009
M:C
L:1/8
Q:180
S:Wm.Mittell's MS,New Romney,Kent,1799
R:Hornpipe
O:England
A:Kent
N:Would seem to be something up with the third part also key sounds a
N:bit funny
Z:vmp.Chris Partington
K:C
cc2ecd2fd|c2ec cBAG|c2ecd2fd|edcB .c.c.cz:|!
|:g2bge2ge|d2gc cBAG|g2bge2ge|fdcB .c.c.cz:|!
|:g2g2.b.g .b.g|e2e2.g.e .g.e|fedc cBAG|c2gcd2ec|!
cBAG d-f.d.d|f-d.c.c d-g.e.c|cBAG .c.c.cz:||
